X: 109
T: Artık Gelecek Sanma Sakın
C: Ârif Sâmi Toker
O: Turkey
F: http://compmusic.upf.edu/node/140
N: acemkurdi--sarki--duyek--artik_gelecek--arif_sami_toker
N: makam= acemkurdi
N: form= sarki
N: usul= duyek = 8/4
M: 8/4
L: 1/16
K: C _B   
Q: 1/4=156
%%MIDI tuningsystem comma53
z2 e2 f2 g2 a3/2g/ f3/2e/ d4  | z2 d2 e2 f2 g3/2f/ e3/2d/ c4  | \
w:   |   | 
z2 c2 d2 e2 f2 e4 c2  | 
w:   | 
d4 c4 e8  | z2 e2 f2 g2 a3/2g/ f3/2e/ d4  | \
w:   |   | 
z2 d2 e2 f2 g3/2f/ e3/2d/ c4  | 
w:   | 
z2 c2 d2 e2 f2 e4 c2  | d2 cB BA BA A4 z4  | \
w:   |   | 
z2 f4 e2 e3d d2 dc  | 
w:  Ar *  tık  *  ge le  | 
d2 e4 d2 dc c=B c4  | e2 .f4 c2 d2 e2 f4  | \
w:  cek  *  *  san *  *  *  ma   |  sa kın  SAZ  | 
z2 f4 a2 g2 f2 e2 fe  | 
w:  geç ti  o  *  gün  | 
d12 z4  | z2 a4 ag g2 f2 e2 gf  | e2 f4 c2 d2 e2 f4  | \
w:  ler    |  geç ti  *  o  *  gün  |  ler   *  SAZ  | 
z2 f4 e2 e3d d2 dc  | 
w:  Ar *  tık  *  ge le  | 
d2 e4 d2 dc c=B c4  | e2 .f4 c2 d2 e2 f4  | \
w:  cek  *  *  san *  *  *  ma   |  sa kın  SAZ  | 
z2 f4 a2 g2 f2 e2 fe  | 
w:  geç ti  o  *  gün  | 
d12 z4  | z2 a4 ag g2 f2 e2 gf  | e2 f4 c2 d2 e2 f4  | \
w:  ler    |  geç ti  *  o  *  gün  |  ler   *  SAZ  | 
zb ag fe dc za gf ed c=B  | 
w:  SAZ  | 
cd =Bc de cd ef de f4  | z2 ag fe d2 c2 d2 e2 {g}fe  | 
w:   |  Ru *  *  *  *  hum *  da  *  bu  | 
e6 de f3/2e/ df e4  | z2 g4 e2 d2 e2 f2 ed  | \
w:  gün  SAZ  |  şar *  *  *  kı mı  | 
c6 de f2 ed c4  | 
w:  zın  SAZ  | 
z2 A4 B2 c2 d2 cB BA  | B8 A2 B2 c2 d2  | \
w:  nağ me si  *  in  |  ler    | 
f2 f_e dc BA G4 A2 {c}BA  | 
w:  *  nağ *  *  *  me *  si  in  | 
A6 c2 d2 e2 f4  | zb ag fe dc za gf ed c=B  | 
w:  ler   SAZ  |  SAZ  | 
cd =Bc de cd ef de f4  | z2 ag fe d2 c2 d2 e2 {g}fe  | 
w:   |  Ru *  *  *  *  hum *  da  *  bu  | 
e6 de f3/2e/ df e4  | z2 g4 e2 d2 e2 f2 ed  | \
w:  gün  SAZ  |  şar *  *  *  kı mı  | 
c6 de f2 ed c4  | 
w:  zın  SAZ  | 
z2 A4 B2 c2 d2 cB BA  | B8 A2 B2 c2 d2  | \
w:  nağ me si  *  in  |  ler    | 
f2 f_e dc BA G4 A2 {c}BA  | 
w:  *  nağ *  *  *  me *  si  in  | 
A6 c2 d2 e2 f4  | z18  | f4f4e2gff6  | e2f2g2a2g fede6  | 
w:  ler   SAZ  |  |  Şen  bes te ler  *  â  |  hen *  gi ni  nağ  | 
e4e2f2e2d2^c4d2  | e6efe d^cde6  | d3ef4e2gff6  | 
w:  men den_ a lır  |  ken   SAZ  |  Tit *  rer  yi ne  *  kal  | 
e2f2g2a2f4a6  | g4b2b2a2g2f2e2d2  | d12e3dc2  | \
w:  bim  *  se nin_ aş  |  kın la  de rin  |  den    | 
c4a2g2g2f2e2f2gf  | 
w:  aş kın *  la  de rin  | 
z16  | e2 f4 c2 d2 e2 f4  | zb ag fe dc za gf ed c=B  | 
w:  |  den   *  SAZ  |   | 
cd =Bc de cd ef de f4  | z2 ag fe d2 c2 d2 e2 {g}fe  | 
w:   |  Ru *  *  *  *  hum *  da  *  bu  | 
e6 de f3/2e/ df e4  | z2 g4 e2 d2 e2 f2 ed  | \
w:  gün  SAZ  |  şar *  *  *  kı mı  | 
c6 de f2 ed c4  | 
w:  zın  SAZ  | 
z2 A4 B2 c2 d2 cB BA  | B8 A2 B2 c2 d2  | \
w:  nağ me si  *  in  |  ler    | 
f2 f_e dc BA G4 A2 {c}BA  | 
w:  *  nağ *  *  *  me *  si  in  | 
A6 |
w:  ler    | 


